X:184
T:I Wish I Never Saw You
T:My Love And I In The Garden
T:Me And My Love In The Garden
R:reel
H:Also played with doubled parts
D:Mary Bergin: Feadoga Stain
Z:id:hn-reel-184
M:C|
K:G
edBA ~G3A|B2Ad BE~E2|1 ~G3E DEGA|AGdB A2Bd:|2 ~G3E DEGB|dBAd BG~G2||
|:dedc BG (3Bcd|e2af gfef|1 dedc BG (3Bcd|egfa ~g3e:|2 d2df ~e3g|fgaf ~g3e||
P:variations
|:edBA ~G3A|BdAc BEEF|1 GAGE DEGA|BGdB A2 (3Bcd:|2 ~G3E DEGB|dBAc BG~G2||
|:d3c BG (3Bcd|eaaf gfef|1 dedc BG (3Bcd|egfa ~g3e:|2 d2df ~e3g|fgaf g2 (3Bcd||

